icons/.local/share/icons/Papirus/48x48/apps/half-life-deathmatch.svg

<svg width="48" height="48" version="1.1" xmlns="http://www.w3.org/2000/svg">
 <rect x="4" y="5" width="40" height="40" rx="2" ry="2" style="opacity:.2"/>
 <rect x="4" y="4" width="40" height="40" rx="2" ry="2" style="fill:#522f17"/>
 <path d="m17.5823 13.711h6.131l7.039 17.902 3.096-1.008 1.031 3.467-6.676 1.928-4.49-11.383-6.584 10.375h-4.129l9.195-14.849-1.031-2.934h-3.582z" style="opacity:.2"/>
 <path d="m17.5823 12.711h6.131l7.039 17.902 3.096-1.008 1.031 3.467-6.676 1.928-4.49-11.383-6.584 10.375h-4.129l9.195-14.849-1.031-2.934h-3.582z" style="fill:#a38976"/>
 <path d="m6 4c-1.108 0-2 0.892-2 2v1c0-1.108 0.892-2 2-2h36c1.108 0 2 0.892 2 2v-1c0-1.108-0.892-2-2-2h-36z" style="fill:#ffffff;opacity:.1"/>
 <path d="m17.582031 12.710938v1h6.13086l7.039062 17.902343 3.095703-1.007812 0.757813 2.546875 0.273437-0.080078-1.03125-3.466797-3.095703 1.007812-7.039062-17.902343h-6.13086zm4.388672 6.792968-8.970703 14.488282h0.619141l8.576171-13.84961-0.224609-0.638672z" style="fill:#ffffff;opacity:.2"/>
</svg>

<svg xmlns="http://www.w3.org/2000/svg" width="48" height="48" version="1.1">
 <circle style="opacity:0.2" cx="24" cy="25" r="20"/>
 <circle style="fill:#522f17" cx="24" cy="24" r="20"/>
 <path style="opacity:0.1" d="M 24,9 A 16,16 0 0 0 8,25 16,16 0 0 0 24,41 16,16 0 0 0 40,25 16,16 0 0 0 24,9 Z M 17.582,13.711 H 23.713 L 30.752,31.613 33.848,30.605 34.879,34.072 28.203,36 23.713,24.617 17.129,34.992 H 13 L 22.195,20.142 21.164,17.208 H 17.582 V 13.71 Z"/>
 <path style="fill:#a38976" d="M 24,8 A 16,16 0 0 0 8,24 16,16 0 0 0 24,40 16,16 0 0 0 40,24 16,16 0 0 0 24,8 Z M 17.582,12.711 H 23.713 L 30.752,30.613 33.848,29.605 34.879,33.072 28.203,35 23.713,23.617 17.129,33.992 H 13 L 22.195,19.142 21.164,16.208 H 17.582 V 12.71 Z"/>
 <path style="opacity:0.1;fill:#ffffff" d="M 24,4 C 12.977,4 4,12.978 4,24 4,24.168 4.0076,24.333 4.0117,24.5 4.279,13.708 13.145,5 24,5 34.854,5 43.721,13.708 43.988,24.5 43.992,24.333 44,24.168 44,24 44,12.978 35.023,4 24,4 Z"/>
</svg>
